X: 1027
T: Dick Sullivan's Favorite
N:"Collected by J.O'Neill"
B:O'Neill's 1027
Z:Transcribed by Dan G. Petersen, dangp@post6.tele.dk
M:6/8
L:1/8
K:G
(B/c/d)c BdB|GBd gdB|(B/c/d)c BdB|AFA cBA|
(B/c/d)c BdB|GBd gdB|cac BgB|AFA cBA:|
dgf gdB|gag gba|gag gdB|(F/G/A)B cde|
dgf gdB|gfe dcB|cac BgB|AFA cBA:|
dBG (G/A/B)c|dBG gfe|dBG GBG|AFA cde|
dBG GBd|gfe dcB|cac BgB|AFA cBA:|


